!!!OTL-incipit: ICH WEISS EIN FEIN BRAUNS MAEGDELEIN
!!!ARE: Europa, Mitteleuropa, Deutschland
!!!SCT: Z0143
!!!TXL: @@DE
!!!YEM: Copyright 1995, estate of Helmut Schaffrath.
**kern	**text
*ICvox	*
*M4/4	*
*met(c)	*
*k[b-]	*
!LO:TX:a:t=Volkslied aus dem Anfange des 16. Jahrhunderts.	!
{4c	Jch
=1	=1
4c	weiß
4c	ein
4g	fein
4g	braun's
=2	=2
4g	Mäg-
4g	-de-
4g}	-lein,
{4g	wollt
=3	=3
4f	Gott,
4g	ſie
4a	wä-
4g	-re
=4	=4
(4g	mei-
4f)	.
4e;}	-ne,
{4e	ſie
=5	=5
4f	müß-
4f	-te
4g	mir
4e	von
=6	=6
4f	Ha-
4e	-ber-
4g}	-ſtroh
{4e	wohl
=7	=7
4f	ſpin-
4f	-nen
2g	brau-
=8	=8
4f	.
2e	.
8dL	-ne
8cJ	.
=9	=9
2d	Sei-
4c}	-de.
==	==
!!!AGN: Erzaehlung, lustige Romanze
!!!ONB: ESAC (Essen Associative Code) Database: ZUCCAL
!!!AMT: simple quadruple
!!!AIN: vox
!!!EED: Helmut Schaffrath
!!!EEV: 1.0
!!!GTL: II. Erzahlungen, lustige Romanzen, Kinder-Lieder und episch-lyrische Volks-Lieder.
!!!URL-scan: https://www.digitale-sammlungen.de/de/view/bsb11160571?page=269
!!!ENC: Anna Maria Matuszewska
!!!EEV: 2025/01/28
*-	*-
